docs/svgs/table-shade.svg

<svg viewBox="0 0 24 24" height="24px" width="24px" fill="#44739e" xmlns="http://www.w3.org/2000/svg"><title>hue:table-shade</title><desc>Source: https://github.com/arallsopp/hass-hue-icons</desc><path d="M 14.15625 5.765625 C 12.976562 6.070312 11.039062 6.070312 9.859375 5.765625 C 8.695312 5.46875 8.730469 4.992188 9.910156 4.707031 C 11.074219 4.421875 12.9375 4.421875 14.101562 4.707031 C 15.28125 4.992188 15.316406 5.46875 14.15625 5.765625 M 18.714844 11.199219 L 16.6875 4.269531 L 16.664062 4.195312 C 16.476562 3.761719 15.558594 3.347656 13.914062 3.125 C 12.667969 2.957031 11.398438 2.957031 10.148438 3.125 C 8.507812 3.347656 7.59375 3.761719 7.40625 4.195312 L 7.371094 4.308594 L 5.289062 11.199219 C 5.257812 11.296875 5.242188 11.398438 5.253906 11.5 C 5.425781 12.640625 7.484375 13.5625 11.253906 13.667969 L 11.253906 17.269531 C 9.421875 17.367188 7.957031 17.808594 7.59375 18.375 C 7.53125 18.464844 7.503906 18.5625 7.503906 18.65625 L 7.503906 19.59375 C 7.503906 20.371094 9.519531 21 12.007812 21 C 14.492188 21 16.511719 20.371094 16.511719 19.59375 L 16.511719 18.65625 C 16.511719 17.960938 14.886719 17.382812 12.757812 17.269531 L 12.757812 13.667969 C 16.523438 13.558594 18.578125 12.636719 18.746094 11.496094 C 18.757812 11.398438 18.742188 11.296875 18.714844 11.199219 "/></svg>

<svg viewBox="0 0 24 24" height="24px" width="24px" fill="#44739e" xmlns="http://www.w3.org/2000/svg"><title>hue:table-shade</title><desc>Source: https://github.com/arallsopp/hass-hue-icons</desc><path d="M14.16,5.77c-1.18,0.3-3.12,0.3-4.3,0C8.7,5.47,8.73,4.99,9.91,4.71c1.16-0.29,3.03-0.29,4.19,0 C15.28,4.99,15.32,5.47,14.16,5.77 M18.71,11.2l-2.03-6.93L16.66,4.2c-0.19-0.43-1.11-0.85-2.75-1.07c-1.25-0.17-2.52-0.17-3.77,0 C8.51,3.35,7.59,3.76,7.41,4.2L7.37,4.31L5.29,11.2c-0.03,0.1-0.05,0.2-0.04,0.3c0.17,1.14,2.23,2.06,6,2.17v3.6 c-1.83,0.1-3.3,0.54-3.66,1.11c-0.06,0.09-0.09,0.19-0.09,0.28v0.94c0,0.78,2.02,1.41,4.5,1.41c2.48,0,4.5-0.63,4.5-1.41v-0.94 c0-0.7-1.62-1.27-3.75-1.39v-3.6c3.77-0.11,5.82-1.03,5.99-2.17C18.76,11.4,18.74,11.3,18.71,11.2"/></svg>
